X: 34246
T: Reeler, The
R: hornpipe
M: 4/4
K: Gmajor
B>d|:e>B (3BAB e>Bd>B|A>GA>B G>ED>E|G>B (3BAB d>B (3BAB|e>Bd>B A2 (3Bcd|
e>B (3BAB e>Bd>B|A>GA>B G>ED>E|G>AB>d g>ed>B|A>GA>B G2 B>d:|
|:g>ed>e g>ab>a|g>fg>a g>ed>B|d>eg>a b>ga>g|e>a >g a2 g>a|
b>ge>g d>gB>d|g>ede g>ab>a|g>fg>d e>gd>B|A>G A>BG2 B>d:|

